!!!COM: Bach, Johann Sebastian
!!!OTL: Nun lob', mein' Seel', den Herren
!!!ONM: No. 268
!!!OCL: Erk
!!!YOE: Riemenschneider, Albert
!!!OPR: 371 Harmonized Chorales and 69 Chorale Melodies with Figured Bass
!!!OPT: Bach Chorale Harmonizations
**kern	**kern	**kern	**kern
! bass	! tenor	! alto	! soprano
*M4/4	*M4/4	*M4/4	*M4/4
*C:	*C:	*C:	*C:
8c	4e	4g	4cc
8B	.	.	.
=1	=1	=1	=1
4A	4e	4a	4cc
4E	8e	4g	4b
.	8d	.	.
4F	4c	8g	4a
.	.	8f	.
8C	4c	8e	4g
8D	.	8f	.
=2	=2	=2	=2
4E	[4c	4g	4cc
8F	8c]	8a	4dd
8G	8B	8g	.
4C;	4c;	4g;	4ee;
4C	8c	4g	4ee
.	8d	.	.
=3	=3	=3	=3
4c	8e	8g	8ee
.	8f	8a	8dd
4G#	8e	4b	4ee
.	8d	.	.
8A	4.c	4.a	4ee
8Gn	.	.	.
8F	.	.	4dd
8G	8B	8g	.
=4	=4	=4	=4
8E	4c	8g	8cc
8F	.	8a	8dd
4G	4B	8g	4ddT
.	.	8f	.
4C;	4G;	4e;	4cc;
!! Repeat from the beginning.
8c	4e	4g	4cc
8B	.	.	.
=1	=1	=1	=1
4A	4e	4a	4cc
4E	8e	4g	4b
.	8d	.	.
4F	4c	8g	4a
.	.	8f	.
8C	4c	8e	4g
8D	.	8f	.
=2	=2	=2	=2
4E	[4c	4g	4cc
8F	8c]	8a	4dd
8G	8B	8g	.
4C;	4c;	4g;	4ee;
4C	8c	4g	4ee
.	8d	.	.
=3	=3	=3	=3
4c	8e	8g	8ee
.	8f	8a	8dd
4G#	8e	4b	4ee
.	8d	.	.
8A	4.c	4.a	4ee
8Gn	.	.	.
8F	.	.	4dd
8G	8B	8g	.
=4	=4	=4	=4
8E	4c	8g	8cc
8F	.	8a	8dd
4G	4B	8g	4ddT
.	.	8f	.
4C;	4G;	4e;	4cc;
!! Continuing.
4C	4G	4e	4cc
=5	=5	=5	=5
4F	4A	4f	8cc
.	.	.	8dd
8E	8G	4cc	4ee
8F	8A	.	.
4G	4B	8g	4dd
.	.	8f	.
4G#	4B	4e	4ee
=6	=6	=6	=6
4A	8B	2e	4cc
.	[8A	.	.
4E	8A]	.	4b
.	8G#	.	.
4AA;	4c;	4e;	4a;
8A	8c	4e	4a
8Gn	8B	.	.
=7	=7	=7	=7
4F#	4A	4d	8dd
.	.	.	8cc
8G	4G	4d	4b
8F#	.	.	.
8E	4G	8g	8cc
8C	.	8e	8b
4D	8d	4f#	4a
.	8c	.	.
=8	=8	=8	=8
4GG;	4B;	4d;	4g;
8G	8B	4d	4g
8F	8A	.	.
4E	4G	8g	4cc
.	.	8f	.
8A	4c	4e	4cc
8G	.	.	.
=9	=9	=9	=9
8F	4c	8a	4dd
8D	.	8f	.
4G	4B	4g	4dd
4.C	4c	8g	8ee
.	.	8f	8dd
.	4B-	4g	4ee
16D	.	.	.
16E	.	.	.
=10	=10	=10	=10
4F;	4A;	4f;	4cc;
4E	4c	4g	4cc
4D	8d	8f	4ff
.	8e	8g	.
4d	4f	4a	4ff
=11	=11	=11	=11
8G	4g	4b-	8ee
8B-	.	.	8dd
4A	4c#	4e	4ee
4D;	4A;	4f;	4dd;
4G	4Bn	4g	4dd
=12	=12	=12	=12
8c	4c	4g	4ee
8B	.	.	.
8A	4c	4a	4ee
8G	.	.	.
8F	4d	4a	4ff
8E	.	.	.
4D	4d	4b-	4ff
=13	=13	=13	=13
4C	8e	4b-	8gg
.	8d	.	16ff
.	.	.	16ee
8D	8c	8a	8ff
8E	8B-	8g	8gg
4F;	4A;	4f;	4cc;
4c	8c	4g	4ee
.	8Bn	.	.
=14	=14	=14	=14
4F#	4A	4a	8dd
.	.	.	8cc
4G	4d	4g	4b
8E	4G	8g	8c
8C	.	8e	8b
4D	8d	4f#	4a
.	8c	.	.
=15	=15	=15	=15
4GG;	4B;	4d;	4g;
4GG	4B	4d	4g
4AA	8E	4a	4cc
.	8F#	.	.
8BB	4G	8d	4b
8C	.	8e	.
=16	=16	=16	=16
4D	4d	4fn	4a
4E	8d	4g	4g
.	8c	.	.
4F	8c	4.a	4dd
.	8B	.	.
4F#	4c	.	4ee
.	.	16b	.
.	.	16cc	.
=17	=17	=17	=17
4G;	4B;	4g;	4dd;
4G#	8e	4b	4ee
.	8d	.	.
8A	8c	4a	4ff
8B	8d	.	.
4c	8e	8g	4ee
.	8f	8a	.
=18	=18	=18	=18
8F	8g	4b	4dd
8G	8f	.	.
4A	8e	2cc	8cc
.	8f	.	8dd
8G	4.g	.	4ee
8F	.	.	.
4G	.	4b	4dd
.	8f	.	.
=19	=19	=19	=19
2.C;	2.e;	2.g;	2.cc;
==	==	==	==
*-	*-	*-	*-
!!!CDT: 1685/3//-1750/7/28
!!!OCY: Deutschland
!!!AGN: chorale
!!!AST: Baroque
!!!AIN: vox
!!!YOY: 1941
!!!PPP: New York; London
!!!PPR: G. Schirmer
!!!ENC: David Huron
!!!EED: David Huron
!!!YEN: United States of America
!!!YER: 1992
!!!YEC: Copyright 1992 David Huron
!!!YEM: Rights to all derivative electronic formats reserved.
!!!YER: March 20, 1996
!!!AMT: simple quadruple
!!!EEV: 1.1
